icons/breeze/32-apps-ktimetracker.svg

<svg height="32" viewBox="0 0 32 32" width="32" xmlns="http://www.w3.org/2000/svg" xmlns:xlink="http://www.w3.org/1999/xlink"><linearGradient id="a" gradientTransform="matrix(3.4959872 0 0 3.4959871 1.30074 3.299862)" gradientUnits="userSpaceOnUse" x1="8.5" x2=".5" y1="7.637367" y2="-.371815"><stop offset="0" stop-color="#4f5356"/><stop offset="1" stop-color="#9b9ea2" stop-opacity="1"/></linearGradient><radialGradient id="b" cx="16" cy="17" gradientUnits="userSpaceOnUse" r="11"><stop offset="0" stop-color="#3dd425" stop-opacity=".954751"/><stop offset="1" stop-color="#59f07c"/></radialGradient><linearGradient id="c" gradientUnits="userSpaceOnUse" x1="14.541744" x2="26.541744" y1="16" y2="28"><stop offset="0"/><stop offset="1" stop-opacity="0"/></linearGradient><linearGradient id="d" gradientTransform="matrix(1.409796 1.409796 -1.409796 1.409796 -3.194127 -556.800269)" gradientUnits="userSpaceOnUse" x1="210.5" x2="210.5" y1="188" y2="193.5"><stop offset="0" stop-color="#9b9ea2"/><stop offset="1" stop-color="#1a1b1e"/></linearGradient><path d="m25.5 4.5-2.5 2.5h-7v10h11v-6l2.5-2.5z" fill="url(#d)"/><g><path d="m10 2v2h6 6v-2zm6 2a13 13 0 0 0 -13 13 13 13 0 0 0 13 13 13 13 0 0 0 13-13 13 13 0 0 0 -13-13z" fill="url(#a)"/><circle cx="16" cy="17" fill="#eff8ff" r="11"/><path d="m16 6a11 11 0 0 0 -11 11 11 11 0 0 0 11 11 11 11 0 0 0 11-11 11 11 0 0 0 -11-11zm0 1a10 10 0 0 1 10 10 10 10 0 0 1 -10 10 10 10 0 0 1 -10-10 10 10 0 0 1 10-10z" opacity=".15"/><path d="m28.978516 16.294922c-.160107 7.055925-5.920781 12.695231-12.978516 12.705078-6.9752634-.013703-12.6965774-5.529884-12.9648438-12.5-.014931.166425-.0266519.333123-.0351562.5 0 7.179702 5.8202983 13 13 13 7.179702 0 13-5.820298 13-13-.000782-.235177-.0079-.47029-.02148-.705078z" opacity=".3"/><path d="m16 6v11h11a11 11 0 0 0 -11-11z" fill="url(#b)"/></g><path d="m14.585938 18.414062 9.585938 9.585938h2.828124v-12z" fill="url(#c)" opacity=".2"/><g><path d="m16 16h11v2h-11z" fill="#00223e"/><path d="m1.2928932 23.334524c0 1.104569-.89543048 2-1.99999997 2-1.10456953 0-1.99969803-.895431-1.99969803-2 0-1.10457.8951285-2 1.99969803-2 1.10456949 0 1.99999997.895431 1.99999997 2z" fill="#686b6f" transform="matrix(.70710678 -.70710678 .70710678 .70710678 0 0)"/><circle cx="16" cy="17" fill="#9b9ea2" r="1"/></g></svg>

<?xml version="1.0" encoding="UTF-8" standalone="no"?>
<svg
   xmlns:dc="http://purl.org/dc/elements/1.1/"
   xmlns:cc="http://creativecommons.org/ns#"
   xmlns:rdf="http://www.w3.org/1999/02/22-rdf-syntax-ns#"
   xmlns:svg="http://www.w3.org/2000/svg"
   xmlns="http://www.w3.org/2000/svg"
   xmlns:sodipodi="http://sodipodi.sourceforge.net/DTD/sodipodi-0.dtd"
   xmlns:inkscape="http://www.inkscape.org/namespaces/inkscape"
   height="32"
   viewBox="0 0 32 32"
   width="32"
   version="1.1"
   id="svg46"
   sodipodi:docname="32-apps-ktimetracker.svg"
   inkscape:version="0.92.5 (2060ec1f9f, 2020-04-08)"
   inkscape:export-filename="/home/ksp/Dokumente/Privat/Eigene_Projekte/ktimetracker/icons/breeze/32-apps-ktimetracker23.png"
   inkscape:export-xdpi="96"
   inkscape:export-ydpi="96">
  <metadata
     id="metadata52">
    <rdf:RDF>
      <cc:Work
         rdf:about="">
        <dc:format>image/svg+xml</dc:format>
        <dc:type
           rdf:resource="http://purl.org/dc/dcmitype/StillImage" />
      </cc:Work>
    </rdf:RDF>
  </metadata>
  <defs
     id="defs50">
    <linearGradient
       gradientTransform="translate(-4.5000534,-1)"
       id="c-3"
       gradientUnits="userSpaceOnUse"
       x1="14.541744"
       x2="26.541744"
       y1="16"
       y2="28">
      <stop
         offset="0"
         id="stop12-6" />
      <stop
         offset="1"
         stop-opacity="0"
         id="stop14-7" />
    </linearGradient>
    <radialGradient
       gradientTransform="translate(-4.5000534,-1)"
       id="b-5"
       cx="16"
       cy="17"
       gradientUnits="userSpaceOnUse"
       r="11">
      <stop
         offset="0"
         stop-color="#3dd425"
         stop-opacity=".954751"
         id="stop7-3" />
      <stop
         offset="1"
         stop-color="#59f07c"
         id="stop9-5" />
    </radialGradient>
    <linearGradient
       id="d-6"
       gradientTransform="matrix(1.409796,1.409796,-1.409796,1.409796,-3.194127,-556.80027)"
       gradientUnits="userSpaceOnUse"
       x1="210.5"
       x2="210.5"
       y1="188"
       y2="193.5">
      <stop
         offset="0"
         stop-color="#9b9ea2"
         id="stop17-2" />
      <stop
         offset="1"
         stop-color="#1a1b1e"
         id="stop19-9" />
    </linearGradient>
    <linearGradient
       id="linearGradient181"
       gradientTransform="matrix(3.4959872,0,0,3.4959871,1.30074,3.299862)"
       gradientUnits="userSpaceOnUse"
       x1="8.5"
       x2="0.5"
       y1="7.6373668"
       y2="-0.371815">
      <stop
         offset="0"
         stop-color="#4f5356"
         id="stop2-1" />
      <stop
         offset="1"
         stop-color="#9b9ea2"
         stop-opacity="1"
         id="stop4-2" />
    </linearGradient>
  </defs>
  <sodipodi:namedview
     pagecolor="#ffffff"
     bordercolor="#666666"
     borderopacity="1"
     objecttolerance="10"
     gridtolerance="10"
     guidetolerance="10"
     inkscape:pageopacity="0"
     inkscape:pageshadow="2"
     inkscape:window-width="1850"
     inkscape:window-height="1080"
     id="namedview48"
     showgrid="false"
     inkscape:zoom="20.85965"
     inkscape:cx="16"
     inkscape:cy="16"
     inkscape:window-x="70"
     inkscape:window-y="0"
     inkscape:window-maximized="1"
     inkscape:current-layer="layer2"
     inkscape:snap-nodes="false" />
  <linearGradient
     id="a"
     gradientTransform="matrix(3.4959872,0,0,3.4959871,1.30074,3.299862)"
     gradientUnits="userSpaceOnUse"
     x1="8.5"
     x2=".5"
     y1="7.637367"
     y2="-.371815">
    <stop
       offset="0"
       stop-color="#4f5356"
       id="stop2" />
    <stop
       offset="1"
       stop-color="#9b9ea2"
       stop-opacity="1"
       id="stop4" />
  </linearGradient>
  <radialGradient
     id="b"
     cx="16"
     cy="17"
     gradientUnits="userSpaceOnUse"
     r="11">
    <stop
       offset="0"
       stop-color="#3dd425"
       stop-opacity=".954751"
       id="stop7" />
    <stop
       offset="1"
       stop-color="#59f07c"
       id="stop9" />
  </radialGradient>
  <linearGradient
     id="c"
     gradientUnits="userSpaceOnUse"
     x1="14.541744"
     x2="26.541744"
     y1="16"
     y2="28">
    <stop
       offset="0"
       id="stop12" />
    <stop
       offset="1"
       stop-opacity="0"
       id="stop14" />
  </linearGradient>
  <linearGradient
     id="d"
     gradientTransform="matrix(1.409796 1.409796 -1.409796 1.409796 -3.194127 -556.800269)"
     gradientUnits="userSpaceOnUse"
     x1="210.5"
     x2="210.5"
     y1="188"
     y2="193.5">
    <stop
       offset="0"
       stop-color="#9b9ea2"
       id="stop17" />
    <stop
       offset="1"
       stop-color="#1a1b1e"
       id="stop19" />
  </linearGradient>
  <g
     inkscape:groupmode="layer"
     id="layer1"
     inkscape:label="Rest"
     sodipodi:insensitive="true">
    <g
       transform="translate(-0.25)"
       id="g138">
      <path
         style="fill:url(#d-6)"
         inkscape:connector-curvature="0"
         id="path22"
         d="M 25.5,4.5 23,7 h -7 v 10 h 11 v -6 l 2.5,-2.5 z" />
      <path
         d="m 10,2 v 2 h 6 6 V 2 Z m 6,2 A 13,13 0 0 0 3,17 13,13 0 0 0 16,30 13,13 0 0 0 29,17 13,13 0 0 0 16,4 Z"
         id="path24"
         style="fill:url(#a)"
         inkscape:connector-curvature="0" />
      <circle
         cx="16"
         cy="17"
         r="11"
         id="circle26"
         style="fill:#eff8ff" />
      <path
         d="M 16,6 A 11,11 0 0 0 5,17 11,11 0 0 0 16,28 11,11 0 0 0 27,17 11,11 0 0 0 16,6 Z m 0,1 A 10,10 0 0 1 26,17 10,10 0 0 1 16,27 10,10 0 0 1 6,17 10,10 0 0 1 16,7 Z"
         id="path28"
         inkscape:connector-curvature="0"
         style="opacity:0.15" />
      <path
         d="M 28.978516,16.294922 C 28.818409,23.350847 23.057735,28.990153 16,29 9.0247366,28.986297 3.3034226,23.470116 3.0351562,16.5 3.0202252,16.666425 3.0085043,16.833123 3,17 c 0,7.179702 5.8202983,13 13,13 7.179702,0 13,-5.820298 13,-13 -7.82e-4,-0.235177 -0.0079,-0.47029 -0.02148,-0.705078 z"
         id="path30"
         inkscape:connector-curvature="0"
         style="opacity:0.3" />
    </g>
  </g>
  <g
     inkscape:groupmode="layer"
     id="layer2"
     inkscape:label="Zifferblatt">
    <g
       id="g131"
       transform="translate(4.2500599,0.99999653)"
       inkscape:transform-center-x="-4.490328"
       inkscape:transform-center-y="-0.039717886"
       inkscape:export-xdpi="96"
       inkscape:export-ydpi="96">
      <path
         d="m 11.499947,5 v 11 h 11 a 11,11 0 0 0 -11,-11 z"
         id="path32"
         style="fill:url(#b-5)"
         inkscape:connector-curvature="0" />
      <path
         id="path36"
         d="M 10.085885,17.414062 19.671823,27 h 2.828124 V 15 Z"
         style="opacity:0.2;fill:url(#c-3)"
         inkscape:connector-curvature="0" />
      <g
         id="g44"
         transform="translate(-4.5000534,-1)">
        <path
           id="path38"
           d="m 16,16 h 11 v 2 H 16 Z"
           inkscape:connector-curvature="0"
           style="fill:#00223e" />
        <path
           id="path40"
           transform="rotate(-45)"
           d="m 1.2928932,23.334524 c 0,1.104569 -0.89543048,2 -1.99999997,2 -1.10456953,0 -1.99969803,-0.895431 -1.99969803,-2 0,-1.10457 0.8951285,-2 1.99969803,-2 1.10456949,0 1.99999997,0.895431 1.99999997,2 z"
           inkscape:connector-curvature="0"
           style="fill:#686b6f" />
        <circle
           id="circle42"
           r="1"
           cy="17"
           cx="16"
           style="fill:#9b9ea2" />
      </g>
    </g>
  </g>
</svg>
